X:1
T:Buxtehude - Aria:  La Capricciosa in G Minor.
%%score { ( 1 2 ) | ( 3 4 5 6 ) }
L:1/8
Q:1/4=100
M:24/16
K:G
V:1 treble nm="Harpsichord" snm="Hch."
V:2 treble 
V:3 bass 
V:4 bass 
V:5 bass 
V:6 bass 
V:1
"^Partita 24"!f! G/B/G/ d3/2 B/d/c/ g3/2 G/c/G/ e3/2 e/g/e/ c'3/2 | %1
 a/d/c/ B/d/g/ A/e/g/ A/c/f/ g3/2 d/g/B/ B/d/G/ G/B/D/ | %2
 D/G/B,/ D3/2 B,/D/B,/ G3/2 C/E/A/ E3/2 E/A/c/ c3/2 | %3
 D/A/c/ D/G/B/ C/E/A/ A,/C/F/ G3/2 F3/2 G3/2[Q:1/4=80] G3/2 :: %4
[Q:1/4=100] G/B/D/ B3/2 B/e/G/ e3/2 (A/c/E/) (G/A/=F/) (E/^F/G/) (A/B/c/) | %5
 (F/A/D/) (G/B/D/) (G/c/E/) (F/c/D/) B3/2 (F/A/C/) G3/2 (A/e/E/) | %6
 B3/2 G/c/E/ d3/2 B/e/G/- c3- c/c B3/2 | E/G/A/ G/A/E/ FG/ z/ c B3/2- B3/2[Q:1/4=80] G3 :| %8
V:2
 z3/2 D/F/D/ G3/2 B,/D/B,/ E3/2 C/E/C/ c3/2 A/c/A/ | %1
 F3/2 GB,/ CA,/ D[I:staff +1]D,/[I:staff -1] (G,/B,/D/) G3/2 x3 | x12 | %3
 x6 [B,D]3/2 [A,C]3/2 [B,D]3/2 [B,D]3/2 :: z3/2 [DG]3/2 z3/2 [GB]3/2 x6 | %5
 x6 [DG]3/2 x3/2 [B,E]3/2 x3/2 | G3/2 x3/2 [DG]3/2 x3/2 G/A/E/ F3/2- FD/- [DG]3/2 | %7
 x3 z/ D- [DG]F/ [DG]3/2- [DG]3/2 [B,D]3 :| %8
V:3
 x12 | x12 | z3/2 G,,/B,,/D,/ G,3/2 E,/G,/E,/ A,3/2 A,,/C,/E,/ A,3/2 A,/C/E/ | %3
 F,D,/ G,G,,/ C,C,,/ D,,D,/ G,,/D,/G,/ G,,/D,/G,/ G,,/D,/G,/ G,,3/2 :: %4
 z3/2 z/ G,/F,/ E,3/2 (E,,/B,,/E,/) C,3/2 D,3/2 z3/2 E,3/2 | %5
 [D,A,]3/2 [D,G,]3/2 [C,A,]3/2 [D,A,]3/2 (G,,/D,/G,/) D,,3/2 (E,,/B,,/E,/) C,3/2 | %6
 D,/G,/B,/ E,3/2 z/ (D,/G,/-) G,3/2 z3/2 z/ (C,/A,/-) A,3/2 z/ (D,/G,/-) | %7
 [E,G,]3/2 [E,A,]3/2 A,B,/ A,3/2 G,3/2 z/ x/ G,/- [D,G,]3 :| %8
V:4
 x12 | x12 | x12 | x12 :: x6 A,,3/2 B,,3/2 C,3- | C,3/2 B,,3/2 A,,3/2 D,,3/2 x6 | %6
 x3 B,,3/2 G,,3/2 A,,3/2 A,,3/2 [B,,D,]3/2 B,,3/2 | %7
 C,3/2 ^C,3/2 D,3/2- D,3/2 z/ z/ G,,/- G,,3/2- [G,,B,,]3 :| %8
V:5
 x12 | x12 | x12 | x12 :: x12 | x12 | x12 | x15/2 B,,3/2- x3 :| %8
V:6
 x12 | x12 | x12 | x12 :: x12 | x12 | x12 | x8 D,- x3 :| %8

